html/assets/images/dynamic/icon3.svg

<svg width="92" height="75" viewBox="0 0 92 75" fill="none" xmlns="http://www.w3.org/2000/svg">
<g id="Group">
<path id="Vector" d="M55.5652 59.5188H2V17.4319H55.5652" stroke="#00999A" stroke-width="4" stroke-linecap="round" stroke-linejoin="round"/>
<path id="Vector_2" d="M70.8696 17.4319H90.0001V59.5188H70.8696" stroke="#00999A" stroke-width="4" stroke-linecap="round" stroke-linejoin="round"/>
<path id="Vector_3" d="M32.6087 25.0842H14.5114C14.5114 27.2268 12.3305 28.9486 9.65222 28.9486V48.0025C12.3305 48.0025 14.5114 49.7242 14.5114 51.8668H32.6087" stroke="#00999A" stroke-width="4" stroke-linecap="round" stroke-linejoin="round"/>
<path id="Vector_4" d="M70.8696 25.0842H77.4888C77.4888 27.2268 79.6696 28.9486 82.3479 28.9486V48.0025C79.6696 48.0025 77.4888 49.7242 77.4888 51.8668H70.8696" stroke="#00999A" stroke-width="4" stroke-linecap="round" stroke-linejoin="round"/>
<path id="Vector_5" d="M23.0435 38.4756H26.8695" stroke="#00999A" stroke-width="4" stroke-linejoin="round"/>
<path id="Vector_6" d="M46 51.8668C51.2828 51.8668 55.5652 45.8713 55.5652 38.4755C55.5652 31.0797 51.2828 25.0842 46 25.0842C40.7173 25.0842 36.4348 31.0797 36.4348 38.4755C36.4348 45.8713 40.7173 51.8668 46 51.8668Z" stroke="#00999A" stroke-width="4" stroke-linejoin="round"/>
<path id="Vector_7" d="M63.2174 40.3884V48.0406" stroke="#00999A" stroke-width="4" stroke-linejoin="round"/>
<path id="Vector_8" d="M63.2174 26.9973V34.6495" stroke="#00999A" stroke-width="4" stroke-linejoin="round"/>
<path id="Vector_9" d="M63.2174 13.606V21.2581" stroke="#00999A" stroke-width="4" stroke-linejoin="round"/>
<path id="Vector_10" d="M63.2174 53.7798V61.432" stroke="#00999A" stroke-width="4" stroke-linejoin="round"/>
<path id="Vector_11" d="M63.2174 67.1711V74.8233" stroke="#00999A" stroke-width="4" stroke-linejoin="round"/>
<path id="Vector_12" d="M63.2174 0.2146V7.86677" stroke="#00999A" stroke-width="4" stroke-linejoin="round"/>
</g>
</svg>

<svg width="92" height="75" fill="none" xmlns="http://www.w3.org/2000/svg"><g stroke="#00999A" stroke-width="4" stroke-linejoin="round"><path d="M55.565 59.519H2V17.432h53.565m15.305 0H90v42.087H70.87" stroke-linecap="round"/><path d="M32.609 25.084H14.51c0 2.143-2.18 3.865-4.859 3.865v19.053c2.679 0 4.86 1.722 4.86 3.865h18.097M70.87 25.084h6.619c0 2.143 2.18 3.865 4.859 3.865v19.053c-2.678 0-4.86 1.722-4.86 3.865H70.87" stroke-linecap="round"/><path d="M23.044 38.476h3.825M46 51.867c5.283 0 9.565-5.996 9.565-13.392 0-7.395-4.282-13.39-9.565-13.39-5.283 0-9.565 5.995-9.565 13.39 0 7.396 4.282 13.392 9.565 13.392zm17.217-11.479v7.653m0-21.044v7.653m0-21.044v7.652m0 32.522v7.652m0 5.739v7.652m0-74.608v7.652"/></g></svg>
